flaticon/coffee-shop/spoon-1.svg

<svg xmlns="http://www.w3.org/2000/svg" width="32" height="32" viewBox="0 0 24 24">
    <path d="M16.839844 8.835938C17.695312 8.835938 19.109375 8.367188 20.433594 6.996094 20.605469 6.824219 20.605469 6.566406 20.433594 6.398438 20.261719 6.226562 20.007812 6.226562 19.835938 6.398438 18.59375 7.636719 17.351562 7.980469 16.839844 7.980469 16.582031 7.980469 16.410156 8.152344 16.410156 8.410156 16.410156 8.667969 16.582031 8.835938 16.839844 8.835938zM7.976562 8.023438C8.1875 8.023438 8.402344 7.808594 8.402344 7.597656 8.402344 6.738281 7.890625 5.328125 6.5625 4 6.390625 3.828125 6.132812 3.828125 5.964844 4 5.792969 4.171875 5.792969 4.425781 5.964844 4.597656 7.203125 5.839844 7.546875 7.082031 7.546875 7.597656 7.546875 7.851562 7.71875 8.023438 7.976562 8.023438zM7.976562 8.023438"/>
    <path d="M 21.890625 19.199219 L 21.035156 18.515625 L 20.347656 18.085938 C 18.101562 16.574219 15.933594 14.710938 13.914062 12.570312 C 14.621094 11.996094 15.351562 11.449219 16.109375 10.933594 L 16.679688 10.546875 C 16.730469 10.550781 16.785156 10.550781 16.839844 10.550781 C 17.179688 10.550781 17.566406 10.507812 17.996094 10.421875 C 19.277344 10.121094 20.5625 9.351562 21.675781 8.238281 C 24.03125 5.839844 24.714844 2.800781 23.175781 1.257812 C 21.632812 -0.28125 18.59375 0.402344 16.195312 2.757812 C 14.617188 4.363281 13.789062 6.257812 13.878906 7.796875 L 12.984375 9.09375 C 12.671875 9.503906 12.351562 9.910156 12.027344 10.304688 C 11.664062 9.859375 11.359375 9.464844 11.058594 9.09375 L 10.09375 7.667969 C 10.101562 7.285156 10.054688 6.875 9.945312 6.441406 C 9.644531 5.15625 8.875 3.871094 7.761719 2.757812 C 6.648438 1.644531 5.363281 0.875 4.078125 0.574219 C 2.75 0.273438 1.59375 0.488281 0.824219 1.257812 C -0.714844 2.800781 -0.03125 5.839844 2.324219 8.195312 C 3.820312 9.738281 5.621094 10.550781 7.117188 10.550781 C 7.210938 10.550781 7.304688 10.546875 7.394531 10.539062 L 7.976562 10.933594 C 8.644531 11.417969 9.34375 11.929688 10.074219 12.535156 C 8.074219 14.664062 5.929688 16.503906 3.652344 18.042969 L 2.964844 18.472656 L 2.066406 19.15625 C 1.46875 19.585938 1.125 20.269531 1.082031 20.996094 C 1.039062 21.726562 1.296875 22.410156 1.808594 22.921875 C 2.238281 23.351562 2.878906 23.566406 3.566406 23.566406 C 3.652344 23.566406 3.695312 23.566406 3.777344 23.566406 C 4.507812 23.523438 5.191406 23.179688 5.578125 22.667969 L 6.261719 21.808594 L 6.304688 21.769531 C 7.816406 18.988281 9.738281 16.460938 12.003906 14.269531 C 14.273438 16.46875 16.21875 18.980469 17.695312 21.726562 L 18.421875 22.667969 C 18.851562 23.179688 19.535156 23.523438 20.304688 23.566406 C 20.347656 23.566406 20.390625 23.566406 20.433594 23.566406 C 21.121094 23.566406 21.761719 23.351562 22.105469 22.964844 C 22.617188 22.410156 22.875 21.726562 22.832031 20.996094 C 22.789062 20.269531 22.445312 19.628906 21.890625 19.199219 Z M 1.425781 1.859375 C 1.808594 1.472656 2.324219 1.300781 2.964844 1.300781 C 3.265625 1.300781 3.566406 1.34375 3.820312 1.34375 C 4.933594 1.601562 6.132812 2.328125 7.117188 3.3125 C 8.105469 4.300781 8.832031 5.496094 9.089844 6.609375 C 9.34375 7.679688 9.21875 8.539062 8.660156 9.09375 C 7.546875 10.25 4.890625 9.566406 2.921875 7.597656 C 0.953125 5.625 0.269531 3.015625 1.425781 1.859375 Z M 8.457031 10.289062 C 8.792969 10.160156 9.046875 9.949219 9.300781 9.738281 C 9.515625 9.480469 9.730469 9.179688 9.859375 8.878906 L 10.332031 9.609375 C 10.628906 10.035156 10.972656 10.464844 11.402344 10.976562 C 11.144531 11.277344 10.886719 11.621094 10.585938 11.921875 C 9.859375 11.320312 9.132812 10.765625 8.445312 10.292969 C 8.449219 10.292969 8.453125 10.289062 8.457031 10.289062 Z M 16.839844 3.355469 C 18.121094 2.03125 19.75 1.300781 21.035156 1.300781 C 21.675781 1.300781 22.191406 1.472656 22.617188 1.816406 C 23.773438 2.929688 23.089844 5.582031 21.121094 7.554688 C 20.136719 8.539062 18.9375 9.265625 17.824219 9.523438 C 16.820312 9.761719 16.007812 9.664062 15.449219 9.195312 C 15.449219 9.195312 15.445312 9.191406 15.445312 9.191406 C 15.40625 9.160156 15.375 9.128906 15.339844 9.09375 C 14.183594 7.980469 14.867188 5.328125 16.839844 3.355469 Z M 5.535156 21.296875 L 4.894531 22.152344 C 4.636719 22.453125 4.207031 22.667969 3.695312 22.710938 C 3.179688 22.710938 2.707031 22.582031 2.410156 22.28125 C 2.066406 21.980469 1.894531 21.511719 1.9375 21.039062 C 1.980469 20.570312 2.195312 20.140625 2.582031 19.796875 L 3.4375 19.15625 L 4.121094 18.769531 C 7.632812 16.375 10.84375 13.289062 13.667969 9.566406 L 14.128906 8.898438 C 14.171875 9 14.222656 9.097656 14.28125 9.195312 C 14.386719 9.40625 14.523438 9.589844 14.699219 9.738281 C 14.929688 9.988281 15.210938 10.175781 15.53125 10.308594 C 11.386719 13.132812 7.972656 16.9375 5.535156 21.296875 Z M 21.503906 22.28125 C 21.25 22.582031 20.777344 22.753906 20.304688 22.710938 C 19.792969 22.710938 19.320312 22.496094 19.066406 22.152344 L 18.421875 21.296875 C 16.925781 18.515625 14.953125 15.945312 12.640625 13.71875 C 12.769531 13.589844 12.898438 13.460938 13.019531 13.332031 C 13.101562 13.257812 13.1875 13.183594 13.273438 13.109375 C 15.320312 15.277344 17.535156 17.152344 19.835938 18.726562 L 20.476562 19.15625 L 21.332031 19.796875 C 21.71875 20.097656 21.933594 20.527344 21.976562 20.996094 C 22.019531 21.46875 21.847656 21.9375 21.503906 22.28125 Z M 21.503906 22.28125"/>
</svg>

<svg xmlns="http://www.w3.org/2000/svg" width="32" height="32" viewBox="0 0 24 24">
    <path d="M16.84 8.836c.855 0 2.27-.469 3.594-1.84a.41.41 0 0 0 0-.598.41.41 0 0 0-.598 0C18.594 7.637 17.352 7.98 16.84 7.98c-.258 0-.43.172-.43.43s.172.426.43.426zm0 0M7.977 8.023c.21 0 .425-.214.425-.425 0-.86-.511-2.27-1.84-3.598a.41.41 0 0 0-.597 0 .41.41 0 0 0 0 .598c1.238 1.242 1.582 2.484 1.582 3 0 .254.172.425.43.425zm0 0"/>
    <path d="M21.89 19.2l-.855-.684-.687-.43c-2.246-1.512-4.414-3.375-6.434-5.516a32.337 32.337 0 0 1 2.195-1.636l.57-.387c.051.004.106.004.16.004.34 0 .727-.043 1.157-.13 1.281-.3 2.567-1.07 3.68-2.183 2.355-2.398 3.039-5.437 1.5-6.98-1.543-1.54-4.582-.856-6.98 1.5-1.579 1.605-2.407 3.5-2.317 5.039l-.895 1.297c-.312.41-.632.816-.957 1.21-.363-.445-.668-.84-.968-1.21l-.965-1.426a4.63 4.63 0 0 0-.149-1.227c-.3-1.285-1.07-2.57-2.183-3.683C6.648 1.645 5.363.875 4.078.574 2.75.274 1.594.488.824 1.258-.715 2.8-.03 5.84 2.324 8.195c1.496 1.543 3.297 2.356 4.793 2.356.094 0 .188-.004.278-.012l.582.395c.668.484 1.367.996 2.097 1.601-2 2.13-4.144 3.969-6.422 5.508l-.687.43-.899.683c-.597.43-.941 1.114-.984 1.84a2.48 2.48 0 0 0 .727 1.926c.43.43 1.07.644 1.757.644h.211c.73-.043 1.414-.386 1.801-.898l.684-.86.043-.038a31.081 31.081 0 0 1 5.699-7.5c2.27 2.199 4.215 4.71 5.691 7.457l.727.941c.43.512 1.113.855 1.883.898h.129c.687 0 1.328-.214 1.671-.601.512-.555.77-1.238.727-1.969a2.431 2.431 0 0 0-.941-1.797zM1.427 1.86c.383-.387.898-.56 1.539-.56.3 0 .601.044.855.044 1.114.258 2.313.984 3.297 1.968.988.989 1.715 2.184 1.973 3.297.254 1.07.129 1.93-.43 2.485-1.113 1.156-3.77.472-5.738-1.496C.953 5.625.27 3.016 1.426 1.859zm7.031 8.43c.336-.13.59-.34.844-.552.215-.258.43-.558.558-.86l.473.731c.297.426.64.856 1.07 1.368-.257.3-.515.644-.816.945a30.544 30.544 0 0 0-2.14-1.629c.003 0 .007-.004.011-.004zm8.383-6.935c1.281-1.324 2.91-2.054 4.195-2.054.64 0 1.156.172 1.582.515 1.156 1.114.473 3.766-1.496 5.739-.984.984-2.183 1.71-3.297 1.968-1.004.239-1.816.141-2.375-.328l-.004-.004c-.039-.03-.07-.062-.105-.097-1.156-1.114-.473-3.766 1.5-5.739zM5.535 21.297l-.64.855c-.258.301-.688.516-1.2.559-.515 0-.988-.129-1.285-.43-.344-.3-.515-.77-.473-1.242.043-.469.258-.898.645-1.242l.856-.64.683-.387c3.512-2.395 6.723-5.48 9.547-9.204l.46-.668c.044.102.095.2.153.297.106.211.242.395.418.543.23.25.512.438.832.57-4.144 2.825-7.558 6.63-9.996 10.989zm15.969.984c-.254.301-.727.473-1.2.43-.511 0-.984-.215-1.238-.559l-.644-.855c-1.496-2.781-3.469-5.352-5.781-7.578.129-.13.257-.258.379-.387.082-.074.168-.148.253-.223a40.47 40.47 0 0 0 6.563 5.618l.64.43.856.64c.387.3.602.73.645 1.2a1.61 1.61 0 0 1-.473 1.284zm0 0"/>
</svg>
